X:444
T:Reel 444
M:4/4
K:Dmaj
L:1/8
C|A,DDC ECA,C|G,2B,D EFGE|A,DDE FEFG|AdcA GECE|DDDE FEFG|A2GE CDEG|A,DDC ECEG|cAGE CDD2G|Addc Acdc|Adde feec|Addc Adde|cAGE EDDB|Addc AccG|AddB cdef|gefd ecdB|cAGE FDD|
